!!!!SEGMENT: Wil1005c-Missa_Gaude_Barbara-Credo
!!!id: Wil1005c
!!!AGN: Mass; Credo
!!!voices: 3-4
!!!OPR: Missa Gaude Barbara
!!!COM: Adrian Willaert
!!!OTL: Credo
**kern	**kern	**kern	**kern
*part4	*part3	*part2	*part1
*staff4	*staff3	*staff2	*staff1
*I"Bassus	*I"Tenor	*I"Altus	*I"Superius
*I'B	*I'T	*I'A	*I'S
*clefF4	*clefGv2	*clefG2	*clefG2
*k[]	*k[]	*k[]	*k[]
*C:	*C:	*C:	*C:
*M2/1	*M2/1	*M2/1	*M2/1
*met(C|)	*met(C|)	*met(C|)	*met(C|)
=1	=1	=1	=1
!!section: Patrem
!!!OMD: Patrem
0r	0r	1d	0r
.	.	2d	.
.	.	2d	.
=2	=2	=2	=2
0r	0r	2f	0r
.	.	2f	.
.	.	1g	.
=3	=3	=3	=3
0r	0r	0f	1a
.	.	.	2a
.	.	.	2a
=4	=4	=4	=4
0r	0r	2r	2cc
.	.	2f	2cc
.	.	2b-i	1dd
.	.	2b-i	.
=5	=5	=5	=5
0r	0r	1.a	0cc
.	.	4g	.
.	.	4f	.
=6	=6	=6	=6
0r	0r	2e	2r
.	.	2.f	2cc
.	.	.	2ff
.	.	4g	.
.	.	[2a	2ff
=7	=7	=7	=7
0r	0r	4a]	1.ee
.	.	4g	.
.	.	1g	.
.	.	2f	4dd
.	.	.	4cc
=8	=8	=8	=8
0r	0r	2.g	2.b
.	.	4a	4cc
.	.	2b-i	2dd
.	.	[2g	[2ee
=9	=9	=9	=9
0r	0r	4g]	4ee]
.	.	4f	4dd
.	.	2d	1dd
.	.	1e	.
.	.	.	2cc#i
=10	=10	=10	=10
1D	0r	2r	2.dd
.	.	2f	.
.	.	.	4ee
2D	.	2d	2ff
2D	.	[2f	[2dd
=11	=11	=11	=11
2F	0r	4f]	4dd]
.	.	4e	4cc
2F	.	1d	2a
2G	.	.	1b
2G	.	4c	.
.	.	4B	.
=12	=12	=12	=12
1F	1A	2c	2.a
.	.	2d	.
.	.	.	4b
2r	2A	2e	4cc
.	.	.	4dd
[2F	2A	[2a	[2cc
=13	=13	=13	=13
2F]	2c	4a]	4cc]
.	.	4g	4b
2F	2c	1f	1a
2B-i	2d	.	.
2B-i	2d	4e	2g
.	.	4d	.
=14	=14	=14	=14
1.A	1c	1e	0a
.	2r	1A	.
4G	[2c	.	.
4F	.	.	.
=15	=15	=15	=15
2E	2c]	0r	0r
2.F	2c	.	.
.	2f	.	.
4G	.	.	.
[2A	2f	.	.
=16	=16	=16	=16
2A]	1.e	0r	0r
1G	.	.	.
2F	4d	.	.
.	4c	.	.
=17	=17	=17	=17
2.G	2.B	2r	0r
.	.	2g	.
4A	4c	.	.
2B-i	2d	2f	.
[2G	2d	[2b-i	.
=18	=18	=18	=18
4G]	4e	2b-]	0r
4F	4d	.	.
2D	1d	2a	.
1E	.	2g	.
.	2c#i	2g	.
=19	=19	=19	=19
1D	2.d	2.f	2r
.	.	.	2dd
.	4e	4g	.
1r	2f	2a	2cc
.	[2d	2b-i	[2ff
=20	=20	=20	=20
0r	4d]	2a	2ff]
.	4c	.	.
.	2A	1a	2ee
.	1B-X	.	2dd
.	.	2g	2dd
=21	=21	=21	=21
0r	0A	2a	2.cc
.	.	2.cc	.
.	.	.	4dd
.	.	.	2ee
.	.	4b	.
.	.	2a	2ff
=22	=22	=22	=22
2r	0r	2.g	2ee
2G	.	.	1dd
.	.	4f	.
2G	.	1e	.
2A	.	.	2cc#i
=23	=23	=23	=23
1B-X	1r	2d	0dd
.	.	1b-i	.
2G	2r	.	.
[2B-i	2d	4a	.
.	.	4g	.
=24	=24	=24	=24
2B-]	2d	2f	0r
4A	2e	2g	.
4G	.	.	.
2F	1f	1a	.
2A	.	.	.
=25	=25	=25	=25
2B-i	2d	0r	0r
1A	1f	.	.
2G	4e	.	.
.	4d	.	.
=26	=26	=26	=26
2A	2c	1r	0r
4G	2d	.	.
4F	.	.	.
2E	2e	2r	.
2D	[2f	[2d	.
=27	=27	=27	=27
1B-i	4f]	2d]	0r
.	4e	.	.
.	1d	2d	.
1A	.	2e	.
.	2c#i	2e	.
=28	=28	=28	=28
0r	2.d	1f	2r
.	.	.	1a
.	4e	.	.
.	1f	2d	.
.	.	[2a	2a
=29	=29	=29	=29
0r	1e	2a]	2b
.	.	2g	2b
.	1r	2f	1cc
.	.	2e	.
=30	=30	=30	=30
1r	2r	4f	2a
.	.	4g	.
.	2f	4a	1cc
.	.	4f	.
2r	2.e	1g	.
2E	.	.	2b
.	4d	.	.
=31	=31	=31	=31
2F	2c	2r	2a
2G	2B	2e	2g
2F	2A	2f	2a
2E	2G	2g	[2b
=32	=32	=32	=32
2D	1A	2f	4b]
.	.	.	4a
2F	.	2d	1a
1E	1B	2e	.
.	.	2e	2g#i
=33	=33	=33	=33
1.A	2.c	1e	1a
.	4d	.	.
.	4e	2r	2r
.	4c	.	.
2D	[2d	[2f	2a
=34	=34	=34	=34
1D	4d]	2f]	2a
.	4c	.	.
.	2A	2f	2a
1r	1B-X	2f	1dd
.	.	2g	.
=35	=35	=35	=35
2r	1A	2.a	1cc
1A	.	.	.
.	.	4g	.
.	1r	2f	2a
2A	.	2e	[2cc
=36	=36	=36	=36
2A	0r	2f	2cc]
2B	.	2d	4b
.	.	.	4a
2.c	.	2e	1g
.	.	4c	.
4B	.	4d	.
=37	=37	=37	=37
2A	0r	4e	0r
.	.	4f	.
2G	.	2.g	.
2A	.	.	.
.	.	4c	.
2F	.	[2f	.
=38	=38	=38	=38
2G	0r	2f]	1r
2G	.	2e	.
2.F	.	2f	2r
.	.	[2a	[2cc
4G	.	.	.
=39	=39	=39	=39
1A	0r	4a]	2cc]
.	.	4g	.
.	.	2e	2cc
2r	.	2.f	2cc
2d	.	.	2dd
.	.	4e	.
=40	=40	=40	=40
2A	2r	4c	2.ee
.	.	4d	.
2.c	1e	4e	.
.	.	4f	4dd
.	.	1g	2cc
4B	.	.	.
2G	2e	.	2b
=41	=41	=41	=41
2.A	2e	1c	2cc
.	2f	.	2a
4G	.	.	.
1E	2.g	1r	2b
.	.	.	4g
.	4f	.	4a
=42	=42	=42	=42
0r	2e	0r	4b
.	.	.	4cc
.	2d	.	2.dd
.	2e	.	.
.	.	.	4g
.	2c	.	[2cc
=43	=43	=43	=43
1r	1d	0r	2cc]
.	.	.	2b
2r	1c	.	2cc
[2c	.	.	2ee
=44	=44	=44	=44
2c]	0r	1r	1dd
2B	.	.	.
2.A	.	2r	1cc
.	.	[2a	.
4G	.	.	.
=45	=45	=45	=45
2F	1r	2a]	0r
2E	.	2g	.
2.D	2r	2.f	.
.	[2f	.	.
4E	.	4e	.
=46	=46	=46	=46
4F	2f]	2d	0r
4G	.	.	.
4A	2f	2c	.
4F	.	.	.
2G	2.e	2B	.
[2A	.	4c	.
.	4d	4d	.
=47	=47	=47	=47
2A]	2c	4e	0r
.	.	4c	.
2G	2B	4d	.
.	.	4e	.
2F	2A	2f	.
[2G	[2B	[2e	.
=48	=48	=48	=48
4G]	4B]	4e]	0r
4F	4A	4d	.
2D	1A	1d	.
1E	.	.	.
.	2G	2c#i	.
=49	=49	=49	=49
0D	0A	1d	1r
.	.	2r	1a
.	.	[2f	.
=50	=50	=50	=50
0r	0r	2f]	2a
.	.	2g	2b
.	.	2a	2cc
.	.	2f	[2dd
=51	=51	=51	=51
1r	1r	1g	2dd]
.	.	.	4cc
.	.	.	4b
2r	1A	2e	1cc
[2F	.	[2a	.
=52	=52	=52	=52
2F]	2A	2a]	1dd
2G	2B	4g	.
.	.	4f	.
2A	2c	2e	2cc
2F	[2d	[2f	4b
.	.	.	4a
=53	=53	=53	=53
1G	2d]	2f]	1b
.	4c	2e	.
.	4B	.	.
1F	2.c	1f	1a
.	4d	.	.
=54	=54	=54	=54
0r	2.e	2.c	2r
.	.	.	2.g
.	4f	4d	.
.	2g	2e	.
.	.	.	4a
.	2G	2d	2b
=55	=55	=55	=55
2r	2d	2.f	2a
1F	2c	.	1cc
.	.	4g	.
.	2A	2a	.
2G	2B	[2g	2b
=56	=56	=56	=56
2A	2c	4g]	1a
.	.	4f	.
2F	1d	1f	.
1G	.	.	1b
.	4c	2e	.
.	4B	.	.
=57	=57	=57	=57
2.F	2.c	1f	[0a
4G	4B	.	.
2A	2c	2r	.
[2D	2d	2f	.
=58	=58	=58	=58
4D]	2.A	2f	1a]
4E	.	.	.
4F	.	2f	.
4G	4B	.	.
2A	2c	2e	2r
2D	2B	2d	2ff
=59	=59	=59	=59
1D	1A	2f	2ff
.	.	4e	2ff
.	.	4d	.
2r	1r	2c	2ee
2B-X	.	[2d	2dd
=60	=60	=60	=60
2B-i	1r	4d]	2ff
.	.	4e	.
2B-i	.	4f	4ee
.	.	4g	4dd
2A	2r	[1a	2cc
2D	2f	.	[2dd
=61	=61	=61	=61
1F	2f	1a]	4dd]
.	.	.	4cc
.	2f	.	1cc
1G	2e	1r	.
.	2d	.	2b
=62	=62	=62	=62
2.F	2f	2r	1.cc
.	4e	2f	.
4G	4d	.	.
2A	2c	2e	.
2G	[2d	[2g	4b
.	.	.	4a
=63	=63	=63	=63
2E	4d]	2g]	2g
.	4c	.	.
2F	1c	4f	2a
.	.	4e	.
1G	.	1d	[1g
.	2B	.	.
=64	=64	=64	=64
0C	1c	0e	1g]
.	2r	.	1g
.	[2c	.	.
=65	=65	=65	=65
0r	2c]	2r	2a
.	2d	2f	1b
.	2e	2g	.
.	2c	2a	2cc
=66	=66	=66	=66
2r	2d	2f	4b
.	.	.	4a
1G	2d	1b-i	1dd
.	1e	.	.
2A	.	4a	2cc#i
.	.	4g	.
=67	=67	=67	=67
2B-X	1d	2f	1dd
2G	.	2.b-i	.
1c	1r	.	1r
.	.	4a	.
.	.	[2a	.
=68	=68	=68	=68
1B-i	2r	2a]	1r
.	2d	2g	.
1A	2e	2a	2r
.	[2f	[2a	2cc
=69	=69	=69	=69
2r	2f]	2a]	2dd
2c	2e	2g	1ee
2G	2.g	2.b-i	.
[2B-i	.	.	2dd
.	8fL	4a	.
.	8eJ	.	.
=70	=70	=70	=70
4B-]	2d	2f	2.ff
4A	.	.	.
4F	2f	1a	.
4G	.	.	8eeL
.	.	.	8ddJ
2A	2e	.	2cc
2D	4d	2a	[2ff
.	4c	.	.
=71	=71	=71	=71
2E	2B	1g	4ff]
.	.	.	4ee
2C	2c	.	1ee
1D	2.A	1f	.
.	.	.	2dd
.	4B	.	.
=72	=72	=72	=72
1A	2.c	2e	0ee
.	.	2A	.
.	4d	.	.
2.A	1e	2.c	.
4B	.	4d	.
=73	=73	=73	=73
2c	0r	2e	2r
2d	.	2f	2a
2c	.	2g	1ee
2A	.	[2a	.
=74	=74	=74	=74
1B-X	1r	4a]	1dd
.	.	4f	.
.	.	2g	.
1A	2r	1c	1ee
.	2A	.	.
=75	=75	=75	=75
2r	2c	0r	2.a
2D	2d	.	.
.	.	.	4b
1A	2e	.	2cc
.	2f	.	2a
=76	=76	=76	=76
1G	2.g	2r	1b
.	.	1d	.
.	4f	.	.
1A	4e	.	1a
.	4d	.	.
.	[2f	2c	.
=77	=77	=77	=77
2.D	2f]	2.d	2r
.	4e	.	1a
4E	4d	4c	.
2F	2c	2A	.
2D	[2d	2B	4g
.	.	.	4f
=78	=78	=78	=78
1E	2d]	2.G	2g
.	2c#i	.	2.gg
.	.	4A	.
[1D	2d	4B	.
.	.	4A	4ff
.	2A	[2a	[2ff
=79	=79	=79	=79
2D]	1B	2a]	2ff]
2E	.	2g	4ee
.	.	.	4dd
2.F	2A	2.a	2cc
.	[2a	.	[2dd
4G	.	8gL	.
.	.	8fJ	.
=80	=80	=80	=80
1A	4a]	2e	2dd]
.	4g	.	.
.	2e	1a	2cc#i
1r	2f	.	[1dd
.	2g	[2b	.
=81	=81	=81	=81
1r	1d	2b]	0dd_
.	.	2a	.
1G	2r	2g	.
.	[2d	2g	.
=82	=82	=82	=82
1B-X	2d]	2.f	1dd]
.	1f	.	.
.	.	8eL	.
.	.	8dJ	.
2A	.	2c	1r
[2G	2e	[2B	.
=83	=83	=83	=83
2G]	2d	4B]	2r
.	.	4G	.
2D	2f	2d	1a
2.A	[1e	2.c	.
.	.	.	[2cc
4B	.	4B	.
=84	=84	=84	=84
2c	1e]	4A	2cc]
.	.	4G	.
2G	.	1g	2b
1A	2r	.	2a
.	2c	2f#i	2cc
=85	=85	=85	=85
1G	2d	2.g	2.b
.	2e	.	.
.	.	4f	8aL
.	.	.	8gJ
2r	2.f	1d	1a
2D	.	.	.
.	8eL	.	.
.	8dJ	.	.
=86	=86	=86	=86
2E	2c	1r	0r
2F	1d	.	.
2G	.	2r	.
2A	2c	2c	.
=87	=87	=87	=87
1G	1B	2d	2r
.	.	2e	2g
1D	1A	2.f	2.a
.	.	8eL	4b
.	.	8dJ	.
=88	=88	=88	=88
1A	0r	2c	2cc
.	.	1e	4b
.	.	.	4a
1r	.	.	2g
.	.	4d	[2a
.	.	4c	.
=89	=89	=89	=89
0r	0r	2d	2a]
.	.	1e	2g
.	.	.	1f
.	.	2d	.
=90	=90	=90	=90
2r	1g	1e	1e
1c	.	.	.
.	1g	1r	1r
2B	.	.	.
=91	=91	=91	=91
2.A	2f	0r	0r
.	1e	.	.
4G	.	.	.
2E	.	.	.
2F	4d	.	.
.	4c	.	.
=92	=92	=92	=92
2G	2B	2r	1gg
2C	2.e	1cc	.
1G	.	.	1gg
.	4d	.	.
.	[2d	2b	.
=93	=93	=93	=93
0A	2d]	2.a	2ff
.	4c	.	1ee
.	4B	4g	.
.	1c	2e	.
.	.	2f	4dd
.	.	.	4cc
=94	=94	=94	=94
0r	2r	4g	2b
.	.	4f	.
.	2g	4e	2.ee
.	.	4d	.
.	2g	2c	.
.	.	.	4dd
.	2g	2B	[2dd
=95	=95	=95	=95
1D	2f	1A	2dd]
.	4e	.	4cc
.	4d	.	4b
1A	2f	1r	2.cc
.	[2e	.	.
.	.	.	4a
=96	=96	=96	=96
2F	4e]	2r	2a
.	4d	.	.
2G	1d	2g	2.b
1E	.	2g	.
.	.	.	4a
.	2c#i	2g	2ee
=97	=97	=97	=97
1D	4d	2f	2a
.	4e	.	.
.	4f	4e	1dd
.	4g	4d	.
2r	2.a	2f	.
2A	.	[2e	2cc#i
.	4g	.	.
=98	=98	=98	=98
2B-X	2f	4e]	1dd
.	.	4d	.
2G	2g	1d	.
1A	2.e	.	1r
.	.	2c#i	.
.	4f	.	.
=99	=99	=99	=99
0B-i	2g	1d	2r
.	2f	.	2dd
.	2d	2r	2dd
.	[2f	2d	2dd
=100	=100	=100	=100
1.A	2f]	1a	2.cc
.	4e	.	.
.	4d	.	8bL
.	.	.	8aJ
.	2c	2f	2cc
4G	[2d	2g	[2b
4F	.	.	.
=101	=101	=101	=101
2G	4d]	1e	4b]
.	4B	.	4a
2A	2c	.	1a
1B-i	2G	2.d	.
.	[2d	.	2g
.	.	4e	.
=102	=102	=102	=102
1.A	2d]	2f	[0al
.	4c	4e	.
.	4B	4d	.
.	2c	2e	.
2D	2d	2f	.
=103	=103	=103	=103
0Al	0cl	0el	0a]
=104||	=104||	=104||	=104||
*M2/1	*M2/1	*M2/1	*M2/1
*met(C|)	*met(C|)	*met(C|)	*met(C|)
!!section: Crucifixus
!!!OMD: Crucifixus
1A	0r	0r	0r
1c	.	.	.
=105	=105	=105	=105
1d	0r	0r	0r
1c	.	.	.
=106	=106	=106	=106
2r	1A	0r	0r
1F	.	.	.
.	1c	.	.
2E	.	.	.
=107	=107	=107	=107
4D	1d	1r	0r
4E	.	.	.
4F	.	.	.
4G	.	.	.
4A	1c	1e	.
4B	.	.	.
[2c	.	.	.
=108	=108	=108	=108
2c]	1r	1g	0r
2B	.	.	.
2.A	2r	1a	.
.	[2c	.	.
8GL	.	.	.
8FJ	.	.	.
=109	=109	=109	=109
4E	2c]	1g	0r
4F	.	.	.
4G	2B	.	.
4E	.	.	.
4F	4A	2r	.
4G	4B	.	.
[2A	4c	[2cc	.
.	4d	.	.
=110	=110	=110	=110
4A]	4e	2cc]	0r
4F	4f	.	.
2G	4d	2b	.
.	4e	.	.
2D	2f	2.a	.
2F	[2d	.	.
.	.	8gL	.
.	.	8fJ	.
=111	=111	=111	=111
1E	2d]	2.g	0r
.	2c	.	.
.	.	4a	.
[1D	2d	4b	.
.	.	4a	.
.	[2f	[2a	.
=112	=112	=112	=112
2D]	2f]	2a]	0r
2E	2e	2g	.
2F	2.d	2a	.
2G	.	2d	.
.	8cL	.	.
.	8BJ	.	.
=113	=113	=113	=113
2C	2.c	2.e	0r
2.c	.	.	.
.	4d	4f	.
.	4e	1g	.
4B	4d	.	.
2G	[2d	.	.
=114	=114	=114	=114
1A	2d]	1e	0r
.	2c#i	.	.
2r	[1d	1d	.
2B-X	.	.	.
=115	=115	=115	=115
4B-i	0d_	1r	0r
4A	.	.	.
4G	.	.	.
4F	.	.	.
2G	.	2r	.
2F	.	2f	.
=116	=116	=116	=116
2D	1d]	2.f	0r
2.B-i	.	.	.
.	.	4e	.
.	2r	4d	.
4A	.	4c	.
2B-i	2f	2d	.
=117	=117	=117	=117
2A	4f	2c	0r
.	4e	.	.
2.B-i	4d	2f	.
.	4c	.	.
.	2d	2g	.
4A	.	.	.
[2F	2c	[2a	.
=118	=118	=118	=118
4F]	2f	2a]	0r
8EL	.	.	.
8DJ	.	.	.
2E	2g	2g	.
4F	1a	2f	.
4G	.	.	.
4A	.	[2e	.
4B	.	.	.
=119	=119	=119	=119
2c	2g	2e]	0r
2F	2f	4d	.
.	.	4c	.
2G	1e	4B	.
.	.	4A	.
2A	.	[2a	.
=120	=120	=120	=120
1B-i	1r	2a]	0r
.	.	2g	.
2r	1d	2a	.
[2G	.	[2b-i	.
=121	=121	=121	=121
2G]	2d	2b-]	0r
2F	1d	2a	.
2.G	.	2b-i	.
.	2d	2g	.
4F	.	.	.
=122	=122	=122	=122
2D	2.d	2.f	0r
2B-X	.	.	.
.	4e	4e	.
2B-i	1f	2d	.
2A	.	2c	.
=123	=123	=123	=123
2.B-i	2d	1f	0r
.	1f	.	.
4A	.	.	.
1F	.	2r	.
.	4e	[2a	.
.	4d	.	.
=124	=124	=124	=124
2r	1c	2a]	0r
2E	.	2g	.
2F	2r	2.a	.
[2A	[2c	.	.
.	.	4g	.
=125	=125	=125	=125
2A]	2c]	2e	0r
4G	2B	2g	.
4F	.	.	.
2E	2c	2g	.
2D	[2d	2f	.
=126	=126	=126	=126
2E	4d]	2g	0r
.	4c	.	.
2F	1c	4f	.
.	.	4e	.
1G	.	1d	.
.	2B	.	.
=127	=127	=127	=127
2r	[0c	1c	0r
2A	.	.	.
2A	.	2r	.
2A	.	2e	.
=128	=128	=128	=128
2.A	1c]	2e	0r
.	.	2e	.
4B	.	.	.
2c	2r	2.e	.
[2c	2e	.	.
.	.	4f	.
=129	=129	=129	=129
2c]	2e	1g	0r
2G	2e	.	.
2A	2.e	2r	.
2A	.	[2c	.
.	4f	.	.
=130	=130	=130	=130
1E	2g	2c]	0r
.	1g	2B	.
1r	.	2c	.
.	2f	2d	.
=131	=131	=131	=131
2r	2e	2.A	0r
2F	2.f	.	.
.	.	4B	.
2F	.	4c	.
.	4e	4A	.
2F	2c	[2a	.
=132	=132	=132	=132
2.F	1d	4a]	0r
.	.	4g	.
.	.	1f	.
4G	.	.	.
2A	1c	.	.
[2A	.	4e	.
.	.	4d	.
=133	=133	=133	=133
2A]	0r	2c	0r
2G	.	2.d	.
2F	.	.	.
.	.	4c	.
[2G	.	4B	.
.	.	4A	.
=134	=134	=134	=134
4G]	0r	4B	0r
4F	.	4A	.
2D	.	1d	.
1E	.	.	.
.	.	2c#i	.
=135	=135	=135	=135
0D	2r	1d	0r
.	2A	.	.
.	2B	2r	.
.	[2A	2f	.
=136	=136	=136	=136
0A	4A]	2f	0r
.	4B	.	.
.	4c	2.e	.
.	4d	.	.
.	4e	.	.
.	4f	4d	.
.	[2e	4c	.
.	.	4B	.
=137	=137	=137	=137
0r	4e]	2A	0r
.	4c	.	.
.	1d	2.B	.
.	.	4A	.
.	2c	[2a	.
=138	=138	=138	=138
1r	1B	2a]	0r
.	.	2g#i	.
2r	1A	[1a	.
[2F	.	.	.
=139	=139	=139	=139
2F]	2r	1a]	0r
4E	2d	.	.
4D	.	.	.
2E	2c	1r	.
2D	[2f	.	.
=140	=140	=140	=140
2F	2f]	0r	0r
2G	4e	.	.
.	4d	.	.
2.A	2f	.	.
.	[2e	.	.
4B	.	.	.
=141	=141	=141	=141
4c	4e]	0r	0r
4d	4d	.	.
1c	4e	.	.
.	4f	.	.
.	2g	.	.
4B	2c	.	.
4A	.	.	.
=142	=142	=142	=142
2B	2d	0r	0r
2A	1f	.	.
1G	.	.	.
.	2e	.	.
=143	=143	=143	=143
2F	2d	2r	0r
2E	1c	2g	.
1D	.	2a	.
.	2B	4g	.
.	.	4f	.
=144	=144	=144	=144
2r	1c	2e	0r
2F	.	2f	.
2G	2r	2d	.
4F	2c	2e	.
4E	.	.	.
=145	=145	=145	=145
2D	2d	2f	0r
2E	4c	2g	.
.	4B	.	.
2F	2A	2c	.
2G	2B	[2e	.
=146	=146	=146	=146
1A	2.c	4e]	0r
.	.	4d	.
.	.	1c	.
.	4d	.	.
1G	2e	.	.
.	2d	2B	.
=147	=147	=147	=147
1C	2e	2.c	0r
.	1g	.	.
.	.	4d	.
2r	.	2e	.
2D	[2f	[2d	.
=148	=148	=148	=148
2F	2f]	2d]	0r
2G	2e	4c	.
.	.	4B	.
2A	1f	2c	.
2B	.	2d	.
=149	=149	=149	=149
2.c	2r	1A	0r
.	2A	.	.
4B	.	.	.
4A	2c	2r	.
4G	.	.	.
2B-i	2d	2G	.
=150	=150	=150	=150
2A	2e	2c	0r
4G	2f	2d	.
4F	.	.	.
1c	2.g	2.e	.
.	4f	4f	.
=151	=151	=151	=151
0r	4e	2g	0r
.	4d	.	.
.	1f	2a	.
.	.	2d	.
.	4e	[2a	.
.	4d	.	.
=152	=152	=152	=152
1r	2c	2a]	0r
.	1d	4g	.
.	.	4f	.
1A	.	2.e	.
.	2c#i	.	.
.	.	4f	.
=153	=153	=153	=153
1.B	1d	2g	0r
.	.	2f	.
.	2r	1e	.
4A	[2d	.	.
4G	.	.	.
=154	=154	=154	=154
2B-i	2d]	0r	0r
2A	1f	.	.
2F	.	.	.
2G	4e	.	.
.	4d	.	.
=155	=155	=155	=155
2A	2f	0r	0r
1c	2e	.	.
.	2c	.	.
2B	2d	.	.
=156	=156	=156	=156
1A	2e	0r	0r
.	1f	.	.
2G	.	.	.
[2A	2e	.	.
=157	=157	=157	=157
4A]	2c	2r	0r
4G	.	.	.
2F	1d	2f	.
2E	.	2g	.
2F	2c	[2a	.
=158	=158	=158	=158
4G	2B	2a]	0r
4F	.	.	.
4E	2B	2g	.
4D	.	.	.
2C	[1A	2e	.
[2D	.	[2f	.
=159	=159	=159	=159
4D]	1A]	2f]	0r
4C	.	.	.
1c	.	2e	.
.	1r	2d	.
2B	.	2d	.
=160	=160	=160	=160
1c	2r	2.c	0r
.	1g	.	.
.	.	4B	.
2r	.	1A	.
[2c	2f	.	.
=161	=161	=161	=161
2c]	2e	1G	0r
2B	2d	.	.
2A	2f	1r	.
2G	4e	.	.
.	4d	.	.
=162	=162	=162	=162
2.A	2c	1r	0r
.	2e	.	.
4G	.	.	.
1F	2d	2r	.
.	[2c	[2a	.
=163	=163	=163	=163
1E	2c]	2a]	0r
.	2B	2g	.
2.A	1c	2f	.
.	.	2e	.
4G	.	.	.
=164	=164	=164	=164
4E	1r	2g	0r
4F	.	.	.
4G	.	4f	.
4A	.	4e	.
4B	2r	2d	.
4c	.	.	.
4d	[2a	2f	.
4B	.	.	.
=165	=165	=165	=165
2c	2a]	2e	0r
2B	2g	1d	.
1A	2f	.	.
.	2e	2c	.
=166	=166	=166	=166
1G	2g	[2d	0r
.	4f	4d]	.
.	4e	4e	.
2r	2d	4f	.
.	.	4g	.
2D	2f	4a	.
.	.	4f	.
=167	=167	=167	=167
2C	2e	2g	0r
4D	2.d	2.f	.
4E	.	.	.
4F	.	.	.
4G	8cL	4e	.
.	8BJ	.	.
2A	2c	4e	.
.	.	8dL	.
.	.	8cJ	.
=168	=168	=168	=168
2G	2B	2d	0r
2.A	4A	4c	.
.	4B	4d	.
.	4c	4e	.
4G	4d	4f	.
2E	4e	4g	.
.	4c	4a	.
=169	=169	=169	=169
2G	2d	4b	0r
.	.	4a	.
2A	2c	1a	.
1E	1B	.	.
.	.	2g#i	.
=170	=170	=170	=170
0Al	0Al	0al	0r
=171||	=171||	=171||	=171||
*M2/1	*M2/1	*M2/1	*M2/1
*met(C|)	*met(C|)	*met(C|)	*met(C|)
!!section: Et in spiritum
!!!OMD: Et in spiritum
0r	0r	1.d	[0a
.	.	2d	.
=172	=172	=172	=172
1.F	0r	1c	1a]
.	.	1A	[1cc
2F	.	.	.
=173	=173	=173	=173
1F	1.f	[0a	1cc]
1D	.	.	[1dd
.	2f	.	.
=174	=174	=174	=174
2.F	1f	1a]	2dd]
.	.	.	2cc
4G	.	.	.
1A	1e	2r	1cc
.	.	2a	.
=175	=175	=175	=175
2r	1d	2.a	1.ff
1d	.	.	.
.	.	8gL	.
.	.	8fJ	.
.	2r	2g	.
2c	2e	[2a	2ee
=176	=176	=176	=176
2d	2f	2a]	2dd
2e	2.e	2g	4cc
.	.	.	4b
1A	.	2.a	2.cc
.	4d	.	.
.	4c	.	.
.	4B	4b	4dd
=177	=177	=177	=177
2r	2.A	1cc	4ee
.	.	.	4ff
1A	.	.	1ee
.	4B	.	.
.	2c	1a	.
2D	2d	.	[2dd
=178	=178	=178	=178
2.A	2f	2a	2dd]
.	2.e	1a	2cc#i
4G	.	.	.
2F	.	.	2dd
.	4d	.	.
2G	[2d	2b	2dd
=179	=179	=179	=179
1E	2d]	2.g	2ee
.	2c#i	.	1gg
.	.	4a	.
[1D	2.d	2b	.
.	.	[2a	[2ff
.	4e	.	.
=180	=180	=180	=180
2D]	4f	4a]	4ff]
.	4g	4g	4ee
2F	2a	4f	4dd
.	.	4e	4cc
2G	2g	2d	4b
.	.	.	4a
2A	2e	2c	2cc
=181	=181	=181	=181
1D	1f	1d	2b
.	.	.	1a
1E	2e	1B	.
.	[2e	.	2g#i
=182	=182	=182	=182
2.A	4e]	1A	[0a
.	4c	.	.
.	2f	.	.
4B	.	.	.
2c	2e	2r	.
2d	[2d	2f	.
=183	=183	=183	=183
1A	2d]	2f	1a]
.	2c#i	2e	.
1B-X	1d	4d	2r
.	.	4e	.
.	.	4f	2ff
.	.	4g	.
=184	=184	=184	=184
1A	1r	2a	2ff
.	.	2cc	2ee
1r	2r	2b	2.dd
.	2d	[2a	.
.	.	.	4ee
=185	=185	=185	=185
0r	2d	4a]	2ff
.	.	4f	.
.	2c	2g	2.ee
.	2A	[1a	.
.	.	.	4dd
.	2f	.	4cc
.	.	.	4b
=186	=186	=186	=186
2r	2f	1a]	2a
2A	2e	.	2cc
2B-i	4d	1r	2.dd
.	4e	.	.
2B-i	4f	.	.
.	4g	.	4ee
=187	=187	=187	=187
4F	2a	0r	2ff
4G	.	.	.
4A	2a	.	2.ee
4B	.	.	.
2c	2.g	.	.
.	.	.	4dd
2G	.	.	[2dd
.	4f	.	.
=188	=188	=188	=188
1A	1e	0r	2dd]
.	.	.	2cc#i
1D	1d	.	1dd
=189	=189	=189	=189
1G	1r	1d	2r
.	.	.	2b
1G	2r	1g	2b
.	2d	.	2b
=190	=190	=190	=190
1G	2d	1b	1.dd
.	2d	.	.
[1F	[1f	2a	.
.	.	[2a	2cc
=191	=191	=191	=191
2F]	2f]	2a]	2a
2G	2e	2g	2b
1A	1c	2e	2cc
.	.	[2f	[2a
=192	=192	=192	=192
1B-X	1d	4f]	4a]
.	.	4e	8gL
.	.	.	8fJ
.	.	1d	2g
1A	1e	.	[1a
.	.	2c#i	.
=193	=193	=193	=193
2r	1f	2d	1a]
1A	.	1c	.
.	[1e	.	1r
2G	.	2B	.
=194	=194	=194	=194
2A	2e]	2c	2r
2F	2d	2A	1dd
2G	1e	2B	.
2A	.	[2A	2cc
=195	=195	=195	=195
1D	1f	2A]	2dd
.	.	2a	2a
1r	1e	2a	1b
.	.	2g#i	.
=196	=196	=196	=196
2r	0r	2a	1a
2A	.	2e	.
2A	.	2f	1r
2G	.	4e	.
.	.	4d	.
=197	=197	=197	=197
2A	0r	2c	0r
2E	.	1e	.
1F	.	.	.
.	.	2d	.
=198	=198	=198	=198
1E	1r	2e	2r
.	.	2.g	2ee
1r	2r	.	2dd
.	.	4f	.
.	[2e	4e	[2gg
.	.	4d	.
=199	=199	=199	=199
0r	2e]	1c	4gg]
.	.	.	4ff
.	2e	.	4ee
.	.	.	4dd
.	2f	1r	2cc
.	2f	.	2dd
=200	=200	=200	=200
0r	2.e	0r	2g
.	.	.	2b
.	4d	.	.
.	2c	.	2a
.	2B	.	[2dd
=201	=201	=201	=201
0r	1A	0r	4dd]
.	.	.	4cc
.	.	.	1cc
.	2c	.	.
.	2d	.	4b
.	.	.	4a
=202	=202	=202	=202
0r	2e	0r	2g
.	2.f	.	2a
.	.	.	2e
.	4e	.	.
.	[2e	.	2g
=203	=203	=203	=203
1r	2e]	2r	1f
.	2d	2a	.
2r	2.e	2g	1e
[2A	.	[2cc	.
.	4d	.	.
=204	=204	=204	=204
2A]	2e	4cc]	0r
.	.	4b	.
2A	1f	4a	.
.	.	4g	.
2B-i	.	2f	.
2B-i	4e	2g	.
.	4d	.	.
=205	=205	=205	=205
2.A	1e	2c	0r
.	.	2e	.
4G	.	.	.
2F	1r	2d	.
2E	.	[2g	.
=206	=206	=206	=206
1D	0r	4g]	0r
.	.	4f	.
.	.	1f	.
2F	.	.	.
2G	.	4e	.
.	.	4d	.
=207	=207	=207	=207
2A	0r	2c	0r
2.B-i	.	2.d	.
4A	.	4e	.
[2A	.	2c	.
=208	=208	=208	=208
2A]	0r	2B	1r
2G	.	1e	.
1A	.	.	2r
.	.	4d	[2a
.	.	4c	.
=209	=209	=209	=209
1D	1r	2.d	2a]
.	.	.	2b
.	.	4c	.
1r	[1e	1A	2cc
.	.	.	2a
=210	=210	=210	=210
0r	2e]	2r	2b
.	2e	2A	2cc
.	2f	2d	2dd
.	2e	2c	2ee
=211	=211	=211	=211
1r	2.f	1d	2a
.	.	.	2.ff
.	4g	.	.
2r	1a	2A	.
.	.	.	4ee
2A	.	2cc	2ee
=212	=212	=212	=212
2d	2f	2b	2dd
2c	2e	2cc	2.gg
1d	1f	4a	.
.	.	4g	4ff
.	.	4a	[2ff
.	.	4b	.
=213	=213	=213	=213
1c	1g	2.cc	2ff]
.	.	.	2ee
.	.	4b	.
1F	1f	4a	[1ff
.	.	4g	.
.	.	2a	.
=214	=214	=214	=214
2r	1r	1d	0ff]
1B-i	.	.	.
.	1f	1r	.
2B-i	.	.	.
=215	=215	=215	=215
2B-i	2f	1r	0r
2A	2f	.	.
2G	2e	2r	.
[2F	2d	[2a	.
=216	=216	=216	=216
2F]	2c	2a]	0r
4E	2d	2a	.
4D	.	.	.
1E	2c	2a	.
.	2B	2g	.
=217	=217	=217	=217
2r	1A	2f	1cc
2A	.	2e	.
2A	2r	2f	2cc
2A	2a	[2e	2cc
=218	=218	=218	=218
2E	2g	4e]	2b
.	.	4d	.
2F	2f	2c	2a
2G	2e	2B	2g
2F	2f	[2c	2a
=219	=219	=219	=219
2G	1d	2c]	2.g
2G	.	2B	.
.	.	.	4f
1C	1c	2c	[1e
.	.	[2g	.
=220	=220	=220	=220
2r	2r	4g]	1e]
.	.	4f	.
2A	2c	4e	.
.	.	4d	.
2A	2c	1e	1r
2A	2c	.	.
=221	=221	=221	=221
2F	2d	1r	1r
2G	2d	.	.
2C	2e	2r	2r
4F	[2f	2a	2cc
4G	.	.	.
=222	=222	=222	=222
4A	4f]	2a	2cc
4B	4e	.	.
4c	1e	2a	2cc
4A	.	.	.
1B-X	.	2f	2dd
.	2d	2g	2dd
=223	=223	=223	=223
2A	2.a	2c	2ee
2D	.	2d	2.ff
.	8gL	.	.
.	8fJ	.	.
2E	2g	2B	.
.	.	.	4ee
2C	2a	2c	[2ee
=224	=224	=224	=224
1D	1f	2.A	2ee]
.	.	.	2dd
.	.	4B	.
2.A	1e	1c	2ee
.	.	.	[2cc
4B	.	.	.
=225	=225	=225	=225
1c	2r	1r	4cc]
.	.	.	4dd
.	2c	.	1ee
1C	2c	2r	.
.	2c	2g	4dd
.	.	.	4cc
=226	=226	=226	=226
1G	2d	2g	2.b
.	2e	2g	.
.	.	.	4cc
2r	2f	2a	1dd
2G	4e	2b	.
.	4d	.	.
=227	=227	=227	=227
2A	4c	1cc	1r
.	4d	.	.
2A	4e	.	.
.	4f	.	.
2G	2g	2b	2r
[2c	[2e	2a	2cc
=228	=228	=228	=228
2c]	4e]	2g	2cc
.	4c	.	.
4B	1f	1a	2cc
4A	.	.	.
2B	.	.	2dd
2c	2e	2g	2ee
=229	=229	=229	=229
2.F	2d	2.a	1ff
.	1c	.	.
4G	.	4b	.
2A	.	2cc	2ee
2D	[2f	[2a	2dd
=230	=230	=230	=230
2A	2f]	2a]	2cc
2B	4e	2g	1dd
.	4d	.	.
1A	1e	[1a	.
.	.	.	2cc#i
=231	=231	=231	=231
0D	2.d	1a]	1dd
.	4c	.	.
.	2A	2r	1ff
.	2d	2f	.
=232	=232	=232	=232
0r	1G	2g	2ee
.	.	2g	2dd
.	1r	2a	2cc
.	.	4g	[2dd
.	.	4f	.
=233	=233	=233	=233
2r	2r	2g	4dd]
.	.	.	4cc
2F	2f	2.a	2.cc
2G	2e	.	.
.	.	4g	8bL
.	.	.	8aJ
2G	2d	2g	2b
=234	=234	=234	=234
2A	2c	2f	2cc
4G	1d	2.g	2.b
4F	.	.	.
2G	.	.	.
.	.	4f	4a
2A	2c	4e	[2a
.	.	4d	.
=235	=235	=235	=235
1E	1B	1e	2a]
.	.	.	2g#i
2.F	1A	1c	[1a
4E	.	.	.
=236	=236	=236	=236
4F	2r	1r	2a]
4G	.	.	.
2.A	2c	.	4g
.	.	.	4f
.	2c	2r	1e
4B	.	.	.
4c	2c	2g	.
4A	.	.	.
=237	=237	=237	=237
2B	2d	2g	0r
2c	2e	2g	.
2F	2f	2a	.
2G	4e	2b	.
.	4d	.	.
=238	=238	=238	=238
2A	4c	1cc	1r
.	4d	.	.
2A	4e	.	.
.	4f	.	.
2G	2g	2b	2r
[2c	[2e	2a	2cc
=239	=239	=239	=239
2c]	4e]	2g	2cc
.	4c	.	.
4B	1f	1a	2cc
4A	.	.	.
2B	.	.	2dd
2c	2e	2g	2ee
=240	=240	=240	=240
2.F	2d	2.a	1ff
.	1c	.	.
4G	.	4b	.
2A	.	2cc	2ee
2D	[2f	[2a	2dd
=241	=241	=241	=241
2A	2f]	2a]	2cc
2B	4e	2g	1dd
.	4d	.	.
1A	1e	2.a	.
.	.	.	2cc#i
.	.	4g	.
=242	=242	=242	=242
*M3/1	*M3/1	*M3/1	*M3/1
*met(O|3)	*met(O|3)	*met(O|3)	*met(O|3)
1r	1d	2f	0.dd
.	.	2e	.
0B	1r	1.f	.
.	[1f	.	.
.	.	2e	.
=243	=243	=243	=243
1B	1f]	1d	0.r
0A	1f	1.c	.
.	[1e	.	.
.	.	4B	.
.	.	4A	.
=244	=244	=244	=244
1G	1e]	1B	0.r
1F	1d	1A	.
1E	1e	1r	.
=245	=245	=245	=245
1A	1c	1r	0.r
1B	1d	1r	.
1c	1e	1a	.
=246	=246	=246	=246
1d	1f	1a	0.r
1B	2.g	0g	.
.	4f	.	.
1c	2e	.	.
.	2d	.	.
=247	=247	=247	=247
1d	0d	1f	0.r
1G	.	1g	.
1A	1c	1e	.
=248	=248	=248	=248
1D	0d	1f	1r
1G	.	1g	1r
1F	1r	[1a	[1ff
=249	=249	=249	=249
2D	1r	2a]	1ff]
2E	.	2g	.
2F	1d	2a	1ff
2G	.	2b	.
1A	1c	[1cc	[1ee
=250	=250	=250	=250
1r	1A	2cc]	1ee]
.	.	4b	.
.	.	4a	.
1d	1f	1b	1dd
1c	1g	1e	1ee
=251	=251	=251	=251
1A	1a	1.f	1cc
1B-X	1d	.	1dd
.	.	2e	.
1A	[1a	1c	1ee
=252	=252	=252	=252
1F	2a]	1.cc	1ff
.	2g	.	.
1.c	1e	.	2.gg
.	.	2b	.
.	.	.	4ff
.	[1g	1g	2ee
2B	.	.	2dd
=253	=253	=253	=253
1G	2g]	1b	0dd
.	2f	.	.
0A	0e	0a	.
.	.	.	1cc#i
=254	=254	=254	=254
*M2/1	*M2/1	*M2/1	*M2/1
*met(C|)	*met(C|)	*met(C|)	*met(C|)
1D	1.d	1f	2dd
.	.	.	1a
2.F	.	2r	.
.	2c	[2a	[2ff
4E	.	.	.
=255	=255	=255	=255
2D	2d	4a]	4ff]
.	.	4b	4dd
2C	2e	2cc	2gg
2D	2f	2a	4ff
.	.	.	4ee
[2G	[2g	2b	4dd
.	.	.	4cc
=256	=256	=256	=256
2G]	4g]	2g	4b
.	4d	.	4a
2D	2f	2.a	1dd
1A	1e	.	.
.	.	4g	.
.	.	2e	2cc#i
=257	=257	=257	=257
[0Dl	[0dl	2f	[0ddl
.	.	2d	.
.	.	[1al	.
=258	=258	=258	=258
0D]	0d]	0a]	0dd]
==	==	==	==
*-	*-	*-	*-
!!!system-decoration: s1,s2,s3,s4
!!!RDF**kern: i = editorial accidental
!!!RDF**kern: l = terminal long
!!!ENC: Maura Sugg
!!!END: 2026/4/12
!!!EED: Benjamin Ory
!!!EEV: 2026/04/22
!!!YEC: Copyright 2026 Irene Holzer, All Rights Reserved
!!!ONB: Translated from MusicXML on 2026/04/22
!!!verovio: header encoded
!!!header-left: Edited by Irene Holzer\n
!!!header-right:
!!!header-center: